X:86
T:Chief Sitting Bull
C:Traditional - Arr. Mike Stangeland
N:
R:bluegrass
L:1/8
Q:1/4=215
M:4/4
K:G
z8 |: (3gag ec (3gag ec | (3gag ec Bc de | =fc Ac fa gf | ed cB cd e=f | g2 ec (3gag ec | 
g2 ec Bc de | =fc Ac fa gf |1 ed cB c2 e2 :|2 ed cB c2 G^A |: cB cd ^d=d c2 | 
^Ad =fd gd f2 | G^A cd ^d=f g^g | g^d =f=d ^dc =d2 | cB cd ^d=d c2 | ^Ad =fd gd f2 | 
G^A cd ^d=f g^g | g=f d^d c4 :|: G2 GF G[^dc] [d2c2] | G2 GF G^D cD | G2 GF GB cd | 
^dc =dB c4 :|: B2 g2 B2 cB | A2 e2 A4 | cB cd ef ga | bg af gf ed | B2 g2 B2 cB | 
AB ^ce af ec | cB cd ef ga | bg af g4 :| 


